images/3234050.svg

<?xml version="1.0" encoding="UTF-8"?>
<svg xmlns="http://www.w3.org/2000/svg" xmlns:xlink="http://www.w3.org/1999/xlink" width="300pt" height="300pt" viewBox="0 0 300 300" version="1.1">
<defs>
<g>
<symbol overflow="visible" id="glyph0-0">
<path style="stroke:none;" d="M 0.59375 2.125 L 0.59375 -8.46875 L 6.59375 -8.46875 L 6.59375 2.125 Z M 1.265625 1.453125 L 5.9375 1.453125 L 5.9375 -7.78125 L 1.265625 -7.78125 Z M 1.265625 1.453125 "/>
</symbol>
<symbol overflow="visible" id="glyph0-1">
<path style="stroke:none;" d="M 1.171875 -8.75 L 2.765625 -8.75 L 6.65625 -1.4375 L 6.65625 -8.75 L 7.796875 -8.75 L 7.796875 0 L 6.203125 0 L 2.328125 -7.3125 L 2.328125 0 L 1.171875 0 Z M 1.171875 -8.75 "/>
</symbol>
<symbol overflow="visible" id="glyph0-2">
<path style="stroke:none;" d="M 1.171875 -8.75 L 2.359375 -8.75 L 2.359375 -5.15625 L 6.65625 -5.15625 L 6.65625 -8.75 L 7.84375 -8.75 L 7.84375 0 L 6.65625 0 L 6.65625 -4.171875 L 2.359375 -4.171875 L 2.359375 0 L 1.171875 0 Z M 1.171875 -8.75 "/>
</symbol>
</g>
</defs>
<g id="surface32281">
<rect x="0" y="0" width="300" height="300" style="fill:rgb(100%,100%,100%);fill-opacity:1;stroke:none;"/>
<path style="fill:none;stroke-width:1.2;stroke-linecap:butt;stroke-linejoin:miter;stroke:rgb(0%,0%,0%);stroke-opacity:1;stroke-miterlimit:10;" d="M 220.179688 241.34375 L 227.238281 227.835938 "/>
<path style="fill:none;stroke-width:1.2;stroke-linecap:butt;stroke-linejoin:miter;stroke:rgb(0%,0%,100%);stroke-opacity:1;stroke-miterlimit:10;" d="M 227.238281 227.835938 L 234.296875 214.332031 "/>
<path style="fill:none;stroke-width:1.2;stroke-linecap:butt;stroke-linejoin:miter;stroke:rgb(0%,0%,100%);stroke-opacity:1;stroke-miterlimit:10;" d="M 234.296875 214.332031 L 249.523438 213.691406 "/>
<path style="fill:none;stroke-width:1.2;stroke-linecap:butt;stroke-linejoin:miter;stroke:rgb(0%,0%,0%);stroke-opacity:1;stroke-miterlimit:10;" d="M 249.523438 213.691406 L 264.75 213.050781 "/>
<path style="fill:none;stroke-width:1.2;stroke-linecap:butt;stroke-linejoin:miter;stroke:rgb(0%,0%,100%);stroke-opacity:1;stroke-miterlimit:10;" d="M 234.296875 214.332031 L 226.128906 201.464844 "/>
<path style="fill:none;stroke-width:1.2;stroke-linecap:butt;stroke-linejoin:miter;stroke:rgb(0%,0%,0%);stroke-opacity:1;stroke-miterlimit:10;" d="M 226.128906 201.464844 L 217.964844 188.597656 "/>
<path style=" stroke:none;fill-rule:nonzero;fill:rgb(100%,100%,100%);fill-opacity:1;" d="M 230.296875 207.332031 L 239.296875 207.332031 L 239.296875 221.332031 L 230.296875 221.332031 Z M 230.296875 207.332031 "/>
<g style="fill:rgb(0%,0%,100%);fill-opacity:1;">
  <use xlink:href="#glyph0-1" x="230.296875" y="218.470703"/>
</g>
<path style="fill:none;stroke-width:1.2;stroke-linecap:butt;stroke-linejoin:miter;stroke:rgb(0%,0%,0%);stroke-opacity:1;stroke-miterlimit:10;" d="M 217.964844 188.597656 L 187.511719 189.878906 "/>
<path style="fill:none;stroke-width:1.2;stroke-linecap:butt;stroke-linejoin:miter;stroke:rgb(0%,0%,0%);stroke-opacity:1;stroke-miterlimit:10;" d="M 214.617188 181.5625 L 190.253906 182.585938 "/>
<path style="fill:none;stroke-width:1.2;stroke-linecap:butt;stroke-linejoin:miter;stroke:rgb(0%,0%,0%);stroke-opacity:1;stroke-miterlimit:10;" d="M 232.082031 161.585938 L 217.964844 188.597656 "/>
<path style="fill:none;stroke-width:1.2;stroke-linecap:butt;stroke-linejoin:miter;stroke:rgb(0%,0%,0%);stroke-opacity:1;stroke-miterlimit:10;" d="M 187.511719 189.878906 L 171.175781 164.144531 "/>
<path style="fill:none;stroke-width:1.2;stroke-linecap:butt;stroke-linejoin:miter;stroke:rgb(0%,0%,0%);stroke-opacity:1;stroke-miterlimit:10;" d="M 171.175781 164.144531 L 185.292969 137.132812 "/>
<path style="fill:none;stroke-width:1.2;stroke-linecap:butt;stroke-linejoin:miter;stroke:rgb(0%,0%,0%);stroke-opacity:1;stroke-miterlimit:10;" d="M 178.945312 164.765625 L 190.238281 143.15625 "/>
<path style="fill:none;stroke-width:1.2;stroke-linecap:butt;stroke-linejoin:miter;stroke:rgb(0%,0%,0%);stroke-opacity:1;stroke-miterlimit:10;" d="M 185.292969 137.132812 L 215.746094 135.855469 "/>
<path style="fill:none;stroke-width:1.2;stroke-linecap:butt;stroke-linejoin:miter;stroke:rgb(0%,0%,0%);stroke-opacity:1;stroke-miterlimit:10;" d="M 185.292969 137.132812 L 168.957031 111.402344 "/>
<path style="fill:none;stroke-width:1.2;stroke-linecap:butt;stroke-linejoin:miter;stroke:rgb(0%,0%,0%);stroke-opacity:1;stroke-miterlimit:10;" d="M 215.746094 135.855469 L 232.082031 161.585938 "/>
<path style="fill:none;stroke-width:1.2;stroke-linecap:butt;stroke-linejoin:miter;stroke:rgb(0%,0%,0%);stroke-opacity:1;stroke-miterlimit:10;" d="M 211.324219 142.269531 L 224.390625 162.855469 "/>
<path style="fill:none;stroke-width:1.2;stroke-linecap:butt;stroke-linejoin:miter;stroke:rgb(0%,0%,0%);stroke-opacity:1;stroke-miterlimit:10;" d="M 168.957031 111.402344 L 183.074219 84.390625 "/>
<path style="fill:none;stroke-width:1.2;stroke-linecap:butt;stroke-linejoin:miter;stroke:rgb(0%,0%,0%);stroke-opacity:1;stroke-miterlimit:10;" d="M 164.015625 105.378906 L 175.308594 83.769531 "/>
<path style="fill:none;stroke-width:1.2;stroke-linecap:butt;stroke-linejoin:miter;stroke:rgb(0%,0%,0%);stroke-opacity:1;stroke-miterlimit:10;" d="M 138.507812 112.683594 L 168.957031 111.402344 "/>
<path style="fill:none;stroke-width:1.2;stroke-linecap:butt;stroke-linejoin:miter;stroke:rgb(0%,0%,0%);stroke-opacity:1;stroke-miterlimit:10;" d="M 183.074219 84.390625 L 174.90625 71.523438 "/>
<path style="fill:none;stroke-width:1.2;stroke-linecap:butt;stroke-linejoin:miter;stroke:rgb(0%,0%,100%);stroke-opacity:1;stroke-miterlimit:10;" d="M 174.90625 71.523438 L 166.742188 58.65625 "/>
<path style="fill:none;stroke-width:1.2;stroke-linecap:butt;stroke-linejoin:miter;stroke:rgb(0%,0%,100%);stroke-opacity:1;stroke-miterlimit:10;" d="M 166.742188 58.65625 L 151.515625 59.296875 "/>
<path style="fill:none;stroke-width:1.2;stroke-linecap:butt;stroke-linejoin:miter;stroke:rgb(0%,0%,0%);stroke-opacity:1;stroke-miterlimit:10;" d="M 151.515625 59.296875 L 136.289062 59.9375 "/>
<path style="fill:none;stroke-width:1.2;stroke-linecap:butt;stroke-linejoin:miter;stroke:rgb(0%,0%,100%);stroke-opacity:1;stroke-miterlimit:10;" d="M 163.996094 65.949219 L 151.816406 66.460938 "/>
<path style="fill:none;stroke-width:1.2;stroke-linecap:butt;stroke-linejoin:miter;stroke:rgb(0%,0%,0%);stroke-opacity:1;stroke-miterlimit:10;" d="M 151.816406 66.460938 L 139.636719 66.976562 "/>
<path style=" stroke:none;fill-rule:nonzero;fill:rgb(100%,100%,100%);fill-opacity:1;" d="M 162.742188 51.65625 L 171.742188 51.65625 L 171.742188 65.65625 L 162.742188 65.65625 Z M 162.742188 51.65625 "/>
<g style="fill:rgb(0%,0%,100%);fill-opacity:1;">
  <use xlink:href="#glyph0-1" x="162.742188" y="62.794922"/>
</g>
<path style="fill:none;stroke-width:1.2;stroke-linecap:butt;stroke-linejoin:miter;stroke:rgb(0%,0%,0%);stroke-opacity:1;stroke-miterlimit:10;" d="M 136.289062 59.9375 L 129.230469 73.445312 "/>
<path style="fill:none;stroke-width:1.2;stroke-linecap:butt;stroke-linejoin:miter;stroke:rgb(0%,0%,100%);stroke-opacity:1;stroke-miterlimit:10;" d="M 129.230469 73.445312 L 122.171875 86.949219 "/>
<path style="fill:none;stroke-width:1.2;stroke-linecap:butt;stroke-linejoin:miter;stroke:rgb(0%,0%,100%);stroke-opacity:1;stroke-miterlimit:10;" d="M 122.171875 86.949219 L 130.339844 99.816406 "/>
<path style="fill:none;stroke-width:1.2;stroke-linecap:butt;stroke-linejoin:miter;stroke:rgb(0%,0%,0%);stroke-opacity:1;stroke-miterlimit:10;" d="M 130.339844 99.816406 L 138.507812 112.683594 "/>
<path style="fill:none;stroke-width:1.2;stroke-linecap:butt;stroke-linejoin:miter;stroke:rgb(0%,0%,100%);stroke-opacity:1;stroke-miterlimit:10;" d="M 129.859375 85.679688 L 136.394531 95.972656 "/>
<path style="fill:none;stroke-width:1.2;stroke-linecap:butt;stroke-linejoin:miter;stroke:rgb(0%,0%,0%);stroke-opacity:1;stroke-miterlimit:10;" d="M 136.394531 95.972656 L 142.925781 106.265625 "/>
<path style=" stroke:none;fill-rule:nonzero;fill:rgb(100%,100%,100%);fill-opacity:1;" d="M 118.171875 79.949219 L 127.171875 79.949219 L 127.171875 93.949219 L 118.171875 93.949219 Z M 118.171875 79.949219 "/>
<g style="fill:rgb(0%,0%,100%);fill-opacity:1;">
  <use xlink:href="#glyph0-1" x="118.171875" y="91.087891"/>
</g>
<path style="fill:none;stroke-width:1.2;stroke-linecap:butt;stroke-linejoin:miter;stroke:rgb(0%,0%,0%);stroke-opacity:1;stroke-miterlimit:10;" d="M 138.507812 112.683594 L 131.449219 126.1875 "/>
<path style="fill:none;stroke-width:1.2;stroke-linecap:butt;stroke-linejoin:miter;stroke:rgb(0%,0%,100%);stroke-opacity:1;stroke-miterlimit:10;" d="M 131.449219 126.1875 L 124.390625 139.695312 "/>
<path style="fill:none;stroke-width:1.2;stroke-linecap:butt;stroke-linejoin:miter;stroke:rgb(0%,0%,100%);stroke-opacity:1;stroke-miterlimit:10;" d="M 124.390625 139.695312 L 109.164062 140.335938 "/>
<path style="fill:none;stroke-width:1.2;stroke-linecap:butt;stroke-linejoin:miter;stroke:rgb(0%,0%,0%);stroke-opacity:1;stroke-miterlimit:10;" d="M 109.164062 140.335938 L 93.9375 140.976562 "/>
<path style=" stroke:none;fill-rule:nonzero;fill:rgb(100%,100%,100%);fill-opacity:1;" d="M 115.390625 132.695312 L 133.390625 132.695312 L 133.390625 146.695312 L 115.390625 146.695312 Z M 115.390625 132.695312 "/>
<g style="fill:rgb(0%,0%,100%);fill-opacity:1;">
  <use xlink:href="#glyph0-1" x="115.390625" y="143.833984"/>
  <use xlink:href="#glyph0-2" x="124.367188" y="143.833984"/>
</g>
<path style="fill:none;stroke-width:1.2;stroke-linecap:butt;stroke-linejoin:miter;stroke:rgb(0%,0%,0%);stroke-opacity:1;stroke-miterlimit:10;" d="M 93.9375 140.976562 L 79.820312 167.988281 "/>
<path style="fill:none;stroke-width:1.2;stroke-linecap:butt;stroke-linejoin:miter;stroke:rgb(0%,0%,0%);stroke-opacity:1;stroke-miterlimit:10;" d="M 79.820312 167.988281 L 49.367188 169.269531 "/>
<path style="fill:none;stroke-width:1.2;stroke-linecap:butt;stroke-linejoin:miter;stroke:rgb(0%,0%,0%);stroke-opacity:1;stroke-miterlimit:10;" d="M 77.074219 175.28125 L 52.714844 176.304688 "/>
<path style="fill:none;stroke-width:1.2;stroke-linecap:butt;stroke-linejoin:miter;stroke:rgb(0%,0%,0%);stroke-opacity:1;stroke-miterlimit:10;" d="M 96.15625 193.71875 L 79.820312 167.988281 "/>
<path style="fill:none;stroke-width:1.2;stroke-linecap:butt;stroke-linejoin:miter;stroke:rgb(0%,0%,0%);stroke-opacity:1;stroke-miterlimit:10;" d="M 49.367188 169.269531 L 42.308594 182.773438 "/>
<path style="fill:none;stroke-width:1.2;stroke-linecap:butt;stroke-linejoin:miter;stroke:rgb(0%,0%,100%);stroke-opacity:1;stroke-miterlimit:10;" d="M 42.308594 182.773438 L 35.25 196.28125 "/>
<path style="fill:none;stroke-width:1.2;stroke-linecap:butt;stroke-linejoin:miter;stroke:rgb(0%,0%,100%);stroke-opacity:1;stroke-miterlimit:10;" d="M 35.25 196.28125 L 43.417969 209.148438 "/>
<path style="fill:none;stroke-width:1.2;stroke-linecap:butt;stroke-linejoin:miter;stroke:rgb(0%,0%,0%);stroke-opacity:1;stroke-miterlimit:10;" d="M 43.417969 209.148438 L 51.585938 222.011719 "/>
<path style="fill:none;stroke-width:1.2;stroke-linecap:butt;stroke-linejoin:miter;stroke:rgb(0%,0%,100%);stroke-opacity:1;stroke-miterlimit:10;" d="M 42.9375 195.011719 L 49.472656 205.304688 "/>
<path style="fill:none;stroke-width:1.2;stroke-linecap:butt;stroke-linejoin:miter;stroke:rgb(0%,0%,0%);stroke-opacity:1;stroke-miterlimit:10;" d="M 49.472656 205.304688 L 56.007812 215.597656 "/>
<path style=" stroke:none;fill-rule:nonzero;fill:rgb(100%,100%,100%);fill-opacity:1;" d="M 31.25 189.28125 L 40.25 189.28125 L 40.25 203.28125 L 31.25 203.28125 Z M 31.25 189.28125 "/>
<g style="fill:rgb(0%,0%,100%);fill-opacity:1;">
  <use xlink:href="#glyph0-1" x="31.25" y="200.419922"/>
</g>
<path style="fill:none;stroke-width:1.2;stroke-linecap:butt;stroke-linejoin:miter;stroke:rgb(0%,0%,0%);stroke-opacity:1;stroke-miterlimit:10;" d="M 51.585938 222.011719 L 82.035156 220.730469 "/>
<path style="fill:none;stroke-width:1.2;stroke-linecap:butt;stroke-linejoin:miter;stroke:rgb(0%,0%,0%);stroke-opacity:1;stroke-miterlimit:10;" d="M 82.035156 220.730469 L 96.15625 193.71875 "/>
<path style="fill:none;stroke-width:1.2;stroke-linecap:butt;stroke-linejoin:miter;stroke:rgb(0%,0%,0%);stroke-opacity:1;stroke-miterlimit:10;" d="M 77.09375 214.710938 L 88.386719 193.097656 "/>
</g>
</svg>

<svg xmlns="http://www.w3.org/2000/svg" xmlns:xlink="http://www.w3.org/1999/xlink" width="300pt" height="300pt" viewBox="0 0 300 300"><defs><symbol overflow="visible"><path d="M.594 2.125V-8.47h6V2.126zm.672-.672h4.671V-7.78h-4.67zm0 0"/></symbol><symbol overflow="visible" id="a"><path d="M1.172-8.75h1.594l3.89 7.313V-8.75h1.14V0H6.204L2.328-7.313V0H1.172zm0 0"/></symbol><symbol overflow="visible" id="b"><path d="M1.172-8.75H2.36v3.594h4.296V-8.75h1.188V0H6.656v-4.172H2.36V0H1.17zm0 0"/></symbol></defs><g><path fill="#fff" d="M0 0h300v300H0z"/><path d="M220.18 241.344l7.058-13.508" stroke-width="1.2" stroke="#000" stroke-miterlimit="10" fill="none"/><path d="M227.238 227.836l7.06-13.504M234.297 214.332l15.226-.64" stroke-width="1.2" stroke="#00f" stroke-miterlimit="10" fill="none"/><path d="M249.523 213.69l15.227-.64" stroke-width="1.2" stroke="#000" stroke-miterlimit="10" fill="none"/><path d="M234.297 214.332l-8.168-12.867" stroke-width="1.2" stroke="#00f" stroke-miterlimit="10" fill="none"/><path d="M226.13 201.465l-8.165-12.867" stroke-width="1.2" stroke="#000" stroke-miterlimit="10" fill="none"/><path d="M230.297 207.332h9v14h-9zm0 0" fill="#fff"/><use xlink:href="#a" x="230.297" y="218.471" fill="#00f"/><path d="M217.965 188.598l-30.453 1.28M214.617 181.563l-24.363 1.023M232.082 161.586l-14.117 27.012M187.512 189.88l-16.336-25.735M171.176 164.145l14.117-27.012M178.945 164.766l11.293-21.61M185.293 137.133l30.453-1.278M185.293 137.133l-16.336-25.73M215.746 135.855l16.336 25.73M211.324 142.27l13.067 20.585M168.957 111.402l14.117-27.01M164.016 105.38l11.293-21.61M138.508 112.684l30.45-1.282M183.074 84.39l-8.168-12.867" stroke-width="1.2" stroke="#000" stroke-miterlimit="10" fill="none"/><path d="M174.906 71.523l-8.164-12.867M166.742 58.656l-15.226.64" stroke-width="1.2" stroke="#00f" stroke-miterlimit="10" fill="none"/><path d="M151.516 59.297l-15.227.64" stroke-width="1.2" stroke="#000" stroke-miterlimit="10" fill="none"/><path d="M163.996 65.95l-12.18.51" stroke-width="1.2" stroke="#00f" stroke-miterlimit="10" fill="none"/><path d="M151.816 66.46l-12.18.517" stroke-width="1.2" stroke="#000" stroke-miterlimit="10" fill="none"/><path d="M162.742 51.656h9v14h-9zm0 0" fill="#fff"/><use xlink:href="#a" x="162.742" y="62.795" fill="#00f"/><path d="M136.29 59.938l-7.06 13.507" stroke-width="1.2" stroke="#000" stroke-miterlimit="10" fill="none"/><path d="M129.23 73.445l-7.058 13.504M122.172 86.95l8.168 12.866" stroke-width="1.2" stroke="#00f" stroke-miterlimit="10" fill="none"/><path d="M130.34 99.816l8.168 12.868" stroke-width="1.2" stroke="#000" stroke-miterlimit="10" fill="none"/><path d="M129.86 85.68l6.535 10.293" stroke-width="1.2" stroke="#00f" stroke-miterlimit="10" fill="none"/><path d="M136.395 95.973l6.53 10.293" stroke-width="1.2" stroke="#000" stroke-miterlimit="10" fill="none"/><path d="M118.172 79.95h9v14h-9zm0 0" fill="#fff"/><use xlink:href="#a" x="118.172" y="91.088" fill="#00f"/><path d="M138.508 112.684l-7.06 13.504" stroke-width="1.2" stroke="#000" stroke-miterlimit="10" fill="none"/><path d="M131.45 126.188l-7.06 13.507M124.39 139.695l-15.226.64" stroke-width="1.2" stroke="#00f" stroke-miterlimit="10" fill="none"/><path d="M109.164 140.336l-15.227.64" stroke-width="1.2" stroke="#000" stroke-miterlimit="10" fill="none"/><path d="M115.39 132.695h18v14h-18zm0 0" fill="#fff"/><g fill="#00f"><use xlink:href="#a" x="115.391" y="143.834"/><use xlink:href="#b" x="124.367" y="143.834"/></g><path d="M93.938 140.977l-14.118 27.01M79.82 167.988l-30.453 1.282M77.074 175.28l-24.36 1.025M96.156 193.72L79.82 167.987M49.367 169.27l-7.058 13.503" stroke-width="1.2" stroke="#000" stroke-miterlimit="10" fill="none"/><path d="M42.31 182.773l-7.06 13.508M35.25 196.28l8.168 12.868" stroke-width="1.2" stroke="#00f" stroke-miterlimit="10" fill="none"/><path d="M43.418 209.148l8.168 12.864" stroke-width="1.2" stroke="#000" stroke-miterlimit="10" fill="none"/><path d="M42.938 195.012l6.535 10.293" stroke-width="1.2" stroke="#00f" stroke-miterlimit="10" fill="none"/><path d="M49.473 205.305l6.535 10.293" stroke-width="1.2" stroke="#000" stroke-miterlimit="10" fill="none"/><path d="M31.25 189.28h9v14h-9zm0 0" fill="#fff"/><use xlink:href="#a" x="31.25" y="200.42" fill="#00f"/><path d="M51.586 222.012l30.45-1.282M82.035 220.73l14.12-27.01M77.094 214.71L88.387 193.1" stroke-width="1.2" stroke="#000" stroke-miterlimit="10" fill="none"/></g></svg>
